X:1
T:He Will Lead Me Home
T:He Will Lead Me Home
T:Alonzo Judson Abbey
T:A. B. Emmons, 1873
T:Public Domain Courtesy of the Cyber Hymnal™
T:Public Domain Courtesy of the Cyber Hymnal™
C:Alonzo Judson Abbey
Z:Public Domain
Z:Courtesy of the Cyber Hymnal™
%%score ( 1 2 ) ( 3 4 )
L:1/8
Q:1/4=115
M:4/4
K:G
V:1 treble 
V:2 treble 
V:3 bass 
V:4 bass 
V:1
 D2 | D2 [DG]2 [DG]2 [DA]2 | [DB]3 [DA] [DG]2 [FA]2 | [GB]2 [Ge]2 [Gd]2 [GB]2 | [FA]6 D2 | %5
w: 1.~’Tis|God’s own hand that|lead- eth me, A-|long my lone- ly|way; But|
w: 2.~’Tis|God’s own hand that|lead- eth me, A-|long my toil- some|way; And|
w: 3.~’Tis|God’s own hand that|lead- eth me, A-|long my pil- grim|way; And|
 D2 [FA]2 [FA]2 [GB]2 | [Ac]3 [GB] [FA]2 [Fc]2 | [GB]2 [DG]2 [DF]2 [DA]2 | [DG]6 || %9
w: not be- cause He|need- eth me, I|need Him for my|stay.|
w: since in love He|feed- eth me, I’ll|trust Him day by|day.|
w: ev- ery day He|speed- eth me Towards|Heav’n’s e- ter- nal|day.|
"^Refrain" [Bd]2 | [Bd]2 [GB]2 [ce]2 [Bd]2 | [Ad]3 [Ac] [GB]2 [GB]2 | [GB]2 [GA]2 [GA]2 G2 | %13
w: ||||
w: So|God’s own hand doth|lead me on, Thro’|dark- ness and thro’|
w: ||||
 [FA]6 D2 | D2 x6 | [DG]2 [DG]2 [DF]2 x2 | [CE]2 [EA]2 [EA]2 [EG]2 | [DG]2 [DF]2 [FB]3 [FA] | %18
w: |||||
w: gloom, And|well|I know, wher-|e’er I go, His|hand will lead me|
w: |||||
 G6 z2 | [Gd]4 [Ge]4 | [Gd]6 [Gd]2 | [Gd]2 [GB]2 [GB]2 G2 | [FA]6 D2 | D2 [DG]2 [DG]2 [DF]2 | %24
w: ||||||
w: home.|Home, sweet|home, My|dear, my heaven- ly|home; And|well I know, wher-|
w: ||||||
 [CE]2 [EA]2 [EA]2 [EG]2 | [DG]2 [DF]2 [FB]3 [FA] | G6 |] %27
w: |||
w: e’er I go, His|hand will lead me|home.|
w: |||
V:2
 D2 | D2 x6 | x8 | x8 | x6 D2 | D2 x6 | x8 | x8 | x6 || x2 | x8 | x8 | x6 G2 | x6 D2 | D2 x6 | x8 | %16
 x8 | x8 | G6 x2 | x8 | x8 | x6 G2 | x6 D2 | D2 x6 | x8 | x8 | G6 |] %27
V:3
 [G,B,]2 | [G,B,]2 [G,B,]2 [G,B,]2 [G,C]2 | [G,C]3 [G,C] [G,B,]2 [D,D]2 | %3
 [G,D]2 [G,C]2 [G,B,]2 [G,D]2 | [D,D]6 [D,D]2 | [D,D]2 [D,D]2 [D,D]2 [D,D]2 | %6
 [D,D]3 [D,D] [D,D]2 [D,D]2 | [G,D]2 [G,B,]2 [D,A,]2 [D,C]2 | [G,B,]6 || G,2 | G,2 G,2 G,2 (G,B,) | %11
 [F,D]3 [F,D] [G,D]2 [G,D]2 | [E,^C]2 [E,C]2 [A,,C]2 [A,,C]2 | [D,D]6 [D,C]2 | %14
 [G,,G,B,]2 [G,,G,B,]2 [G,,G,B,]2 [B,,A,]2 | [C,G,]2 [C,C]2 [C,C]2 [C,C]2 | %16
 [D,B,]2 [D,A,]2 [D,D]3 [D,C] | [G,,B,]6 z2 | [G,B,]4 [C,C]4 | [G,B,]6 [G,B,]2 | %20
 [G,B,]2 [G,D]2 [G,D]2 [E,^C]2 | [D,D]6 [D,C]2 | [G,,G,B,]2 [G,,G,B,]2 [G,,G,B,]2 [B,,A,]2 | %23
 [C,G,]2 [C,C]2 [C,C]2 [C,C]2 | [D,B,]2 [D,A,]2 [D,D]3 [D,C] | [G,,B,]6 x2 | x6 |] %27
V:4
 x2 | x8 | x8 | x8 | x8 | x8 | x8 | x8 | x6 || G,2 | G,2 G,2 G,2 G,2 | x8 | x8 | x8 | x8 | x8 | %16
 x8 | x8 | x8 | x8 | x8 | x8 | x8 | x8 | x8 | x8 | x6 |] %27

